X:1
T:Title
%%score { ( 1 4 ) | ( 2 3 ) }
L:1/8
M:4/4
K:Ab
V:1 treble nm="Grand Piano"
V:4 treble 
V:2 bass 
V:3 bass 
V:1
 z4 z2[Q:1/4=100] [CE]2 | [CA]3 [CA] [CA][CA][CA][DB] | [Ec]6 [Ec]>d | c3 c BEEB | %4
 [CA]6 [CA]>[EG] | F3 F FF[FA][DF] | [CE]6 [Ec]2 | [EB]3 [EB] [EB][EB][Ac][A=d] | [Ge]6 z2 | %9
[M:3/8] edc |[M:4/4] B6 z2 | c6 z2 | A6 z2 | E6 z2 | [CA]3 [CA] [CA][CA][Ec][_Gc] | %15
[M:5/8] d-[Fd-][Fd-] [Fd-][Fd] |[M:3/8] fed |[M:4/4] c6 z2 | %18
[M:3/4] A6[Q:1/4=99][Q:1/4=97][Q:1/4=96][Q:1/4=94][Q:1/4=93][Q:1/4=91][Q:1/4=90][Q:1/4=88][Q:1/4=87][Q:1/4=85][Q:1/4=84][Q:1/4=82][Q:1/4=81][Q:1/4=79][Q:1/4=78][Q:1/4=76] |] %19
V:2
 z4 z2 [A,,A,]2 | [A,,E,]3 [A,,E,] [A,,E,][A,,E,][A,,E,][A,,E,] | [A,,A,]6 z z/ F/ | %3
 [E,A,E]3 [E,A,E] [E,G,D][E,G,D][E,G,D][E,D] | [A,,E,]6 [A,,E,]>[C,A,] | %5
 [D,A,D]3 [D,A,D] [D,A,D][D,A,D][D,A,][D,A,] | [A,,A,]6 [A,,A,]2 | %7
 [B,,G,]3 [B,,G,] [B,,G,][B,,G,][B,,B,][B,,B,] | [E,B,]6 z2 |[M:3/8][K:treble] GBA | %10
[M:4/4] G[K:bass][E,C][E,B,][E,A,] [E,G,]E[K:treble]CE | %11
 A[A,E][A,E][K:bass][A,E] A,[A,E][A,E][G,B,=E] | [F,CF][F,C][F,C][F,C] .[F,C]2 [B,,B,][B,,A,] | %13
 [E,G,]2 [E,G,][E,A,] [E,B,]2 [E,G,D]2 | [A,,A,]3 [A,,E,] [A,,E,][A,,E,][C,A,][C,A,] | %15
[M:5/8] [D,A,][D,A,][D,A,] [D,A,][D,A,] |[M:3/8][K:treble] dcB | %17
[M:4/4] A[A,E][K:bass][A,E][A,E] A,E,E,E, |[M:3/4] z C DD C2 |] %19
V:3
 x8 | x8 | z4 z2 [A,,A,]2 | x8 | x8 | x8 | x8 | x8 | x8 |[M:3/8][K:treble] x3 | %10
[M:4/4] x[K:bass] x5[K:treble] x2 | x3[K:bass] x5 | x8 | x8 | x8 |[M:5/8] x5 | %16
[M:3/8][K:treble] x3 |[M:4/4] x2[K:bass] x6 |[M:3/4] A,,6 |] %19
V:4
 x8 | x8 | x8 | x8 | x8 | x8 | x8 | x8 | x8 |[M:3/8] x3 |[M:4/4] z AGF EGAB | z AGF EccB | %12
 z FFF FA[EG][=DF] | z2 B,C D2 E2 | x8 |[M:5/8] F z z z2 |[M:3/8] x3 | %17
[M:4/4] z AGF E[CEA][DGB][EGc] |[M:3/4] C_G F=E _E2 |] %19

